tools/download-figma-icons/icons/outlined-medium/contracting.svg

<svg width="24" height="24" viewBox="0 0 24 24" fill="none" xmlns="http://www.w3.org/2000/svg">
<path fill-rule="evenodd" clip-rule="evenodd" d="M19.1893 4.49994H16.4998V1.81047L19.1893 4.49994ZM20.3638 22.4983L4.49995 22.4998V1.49998H14.9998V5.24995C14.9998 5.66469 15.3351 5.99994 15.7498 5.99994H19.4998V15.7498C19.4998 16.1646 19.835 16.4998 20.2498 16.4998C20.6645 16.4998 20.9998 16.1646 20.9998 15.7498V4.49995C20.9998 4.30046 20.921 4.10996 20.78 3.96971L17.0301 0.219748C16.8898 0.0787492 16.6993 0 16.4998 0H3.74996C3.33522 0 2.99997 0.335247 2.99997 0.749992V23.2498C2.99997 23.4493 3.07947 23.6398 3.21972 23.78C3.36072 23.921 3.55046 23.9998 3.74996 23.9998L20.3638 23.9983C20.7785 23.9983 21.1138 23.6623 21.1138 23.2483C21.1138 22.8335 20.7778 22.4983 20.3638 22.4983ZM23.7801 16.7196C23.4868 16.4263 23.0128 16.4263 22.7196 16.7196L20.2499 19.1893L19.2801 18.2196C18.9869 17.9263 18.5129 17.9263 18.2196 18.2196C17.9264 18.5128 17.9264 18.9868 18.2196 19.2801L19.7196 20.78C19.8659 20.9263 20.0579 20.9998 20.2499 20.9998C20.4419 20.9998 20.6339 20.9263 20.7801 20.78L23.7801 17.7801C24.0733 17.4868 24.0733 17.0128 23.7801 16.7196ZM11.9999 7.06051L9.74997 9.31049V12H14.2499V9.31049L11.9999 7.06051ZM15.7499 12.7499C15.7499 13.1647 15.4147 13.4999 14.9999 13.4999H8.99998C8.58523 13.4999 8.24998 13.1647 8.24998 12.7499V8.99995C8.24998 8.80045 8.32873 8.60995 8.46973 8.4697L11.4697 5.46973C11.7629 5.17648 12.2369 5.17648 12.5302 5.46973L15.5302 8.4697C15.6712 8.60995 15.7499 8.80045 15.7499 8.99995V12.7499ZM17.2499 15.7498C17.2499 15.3351 16.9146 14.9998 16.4999 14.9998H7.49999C7.08525 14.9998 6.75 15.3351 6.75 15.7498C6.75 16.1646 7.08525 16.4998 7.49999 16.4998H16.4999C16.9146 16.4998 17.2499 16.1646 17.2499 15.7498ZM6.75 18.7498C6.75 18.3351 7.08525 17.9998 7.49999 17.9998H13.4999C13.9147 17.9998 14.2499 18.3351 14.2499 18.7498C14.2499 19.1646 13.9147 19.4998 13.4999 19.4998H7.49999C7.08525 19.4998 6.75 19.1646 6.75 18.7498Z" fill="black"/>
</svg>

<svg width="24" height="24" viewBox="0 0 24 24" fill="none" xmlns="http://www.w3.org/2000/svg"><path fill-rule="evenodd" clip-rule="evenodd" d="M19.19 4.5H16.5V1.81l2.69 2.69Zm1.174 17.998L4.5 22.5v-21H15v3.75c0 .415.335.75.75.75h3.75v9.75a.75.75 0 1 0 1.5 0V4.5c0-.2-.079-.39-.22-.53L17.03.22A.747.747 0 0 0 16.5 0H3.75A.75.75 0 0 0 3 .75v22.5a.75.75 0 0 0 .75.75l16.614-.002a.75.75 0 1 0 0-1.5Zm3.416-5.778a.75.75 0 0 0-1.06 0l-2.47 2.47-.97-.97a.75.75 0 1 0-1.06 1.06l1.5 1.5a.748.748 0 0 0 1.06 0l3-3a.75.75 0 0 0 0-1.06ZM12 7.06 9.75 9.31V12h4.5V9.31L12 7.06Zm3.75 5.69a.75.75 0 0 1-.75.75H9a.75.75 0 0 1-.75-.75V9c0-.2.079-.39.22-.53l3-3a.75.75 0 0 1 1.06 0l3 3c.141.14.22.33.22.53v3.75Zm1.5 3a.75.75 0 0 0-.75-.75h-9a.75.75 0 1 0 0 1.5h9a.75.75 0 0 0 .75-.75Zm-10.5 3A.75.75 0 0 1 7.5 18h6a.75.75 0 1 1 0 1.5h-6a.75.75 0 0 1-.75-.75Z" fill="currentColor"/></svg>
